icons/1_Primary/Infura.svg

<svg xmlns="http://www.w3.org/2000/svg" width="1024" height="1024" fill="none">
   <g clip-path="url(#a)">
      <path fill="#F8C18C" d="M512 1024c282.77 0 512-229.23 512-512S794.77 0 512 0 0 229.23 0 512s229.23 512 512 512Z"/>
      <path fill="#fff" d="M283.91 306.55v62.525l149.38-15.391h55.129v101.22l-92.83 28.404-125.79 30.321 18.662 61.139 120.55-46.33 79.407-24.26v166.14h-55.111l-149.38-15.409v62.543h456.15v-62.525l-149.36 15.409h-55.129v-166.16l79.013 24.141 120.94 46.449 18.662-61.121-125.44-30.254-93.172-28.489v-101.22h55.129l149.38 15.409v-62.543l-456.19.002Z"/>
   </g>
   <defs>
      <clipPath id="a">
         <path fill="#fff" d="M0 0h1024v1024H0z"/>
      </clipPath>
   </defs>
</svg>

<svg width="1024" height="1024" viewBox="0 0 1024 1024" fill="none" xmlns="http://www.w3.org/2000/svg">
<g clip-path="url(#clip0_2_2514)">
<path d="M512 1024C794.77 1024 1024 794.77 1024 512C1024 229.23 794.77 0 512 0C229.23 0 0 229.23 0 512C0 794.77 229.23 1024 512 1024Z" fill="#F8C18C"/>
<path d="M283.91 306.55V369.075L433.29 353.684H488.419V454.904L395.589 483.308L269.799 513.629L288.461 574.768L409.011 528.438L488.418 504.178V670.318H433.307L283.927 654.909V717.452H740.077V654.927L590.717 670.336H535.588V504.176L614.601 528.317L735.541 574.766L754.203 513.645L628.763 483.391L535.591 454.902V353.682H590.72L740.1 369.091V306.548L283.91 306.55Z" fill="white"/>
</g>
<defs>
<clipPath id="clip0_2_2514">
<rect width="1024" height="1024" fill="white"/>
</clipPath>
</defs>
</svg>
